src/icons/svgs/16/calendar-plus.svg

<svg width="16" height="16" viewBox="0 0 16 16" fill="none" xmlns="http://www.w3.org/2000/svg">
<path d="M2 13.6875C2 14.4121 2.57589 15 3.28572 15L12.7143 15C13.4241 15 14 14.4121 14 13.6875L14 6.25L2 6.25L2 13.6875ZM5.83304 9.96875H7.35714V8.41289C7.35714 8.07383 7.64375 7.78125 8 7.78125C8.35625 7.78125 8.61875 8.07492 8.61875 8.41289V9.94414H10.1188C10.4991 9.96875 10.7857 10.2613 10.7857 10.625C10.7857 10.9887 10.498 11.2566 10.167 11.2566H8.61875V12.7879C8.61875 13.1762 8.35625 13.4688 8 13.4688C7.64456 13.4688 7.38125 13.1751 7.38125 12.8371V11.2566H5.83304C5.50089 11.2566 5.21429 10.9887 5.21429 10.625C5.21429 10.2613 5.50089 9.96875 5.83304 9.96875ZM12.7143 2.75L11.4286 2.75V1.85039C11.4286 1.39375 11.0429 1 10.5714 1C10.1 1 9.71429 1.39375 9.71429 1.85039L9.71429 2.75L6.28571 2.75L6.28571 1.85039C6.28571 1.39375 5.9 1 5.42857 1C4.95714 1 4.57143 1.39375 4.57143 1.85039L4.57143 2.75L3.28571 2.75C2.57562 2.75 2 3.33762 2 4.0625L2 5.375L14 5.375V4.0625C14 3.33762 13.4241 2.75 12.7143 2.75Z" fill="black"/>
</svg>

<svg width="16" height="16" viewBox="0 0 16 16" xmlns="http://www.w3.org/2000/svg">
    <path d="M2 13.688C2 14.412 2.576 15 3.286 15h9.428c.71 0 1.286-.588 1.286-1.313V6.25H2v7.438zm3.833-3.72h1.524V8.414c0-.34.287-.632.643-.632.356 0 .619.294.619.632v1.531h1.5c.38.025.667.317.667.681a.623.623 0 0 1-.619.632H8.619v1.53c0 .39-.263.682-.619.682a.623.623 0 0 1-.619-.632v-1.58H5.833a.622.622 0 0 1-.619-.632c0-.364.287-.656.619-.656zm6.881-7.218H11.43v-.9a.864.864 0 0 0-.86-.85.864.864 0 0 0-.857.85v.9H6.286v-.9A.864.864 0 0 0 5.429 1a.864.864 0 0 0-.858.85v.9H3.286C2.576 2.75 2 3.338 2 4.063v1.312h12V4.062c0-.724-.576-1.312-1.286-1.312z"/>
</svg>
